PenDown Forward 100     PenUp Backward 50 Right 90
PenDown Forward 50      PenUp Left 90 Backward 50
PenDown Forward 100

PenUp Right 90 Forward 35

PenDown Forward 50
    PenUp Backward 25
        PenDown Right 90
            Forward 100
        PenDown Right 90
    PenUp Backward 25
PenDown Forward 50
